X:38
T: Der Maedchenmoerder (Halewijn - Ulinger)
N: Q0041T
O: Mitteleuropa, Deutschland / Tschechoslowakei, Boehmen
R: Ballade, Verfuehrung, Mord, Mordversuch bzw. Rache
M: 6/8
L: 1/16
K: G
G2 | B4G2G2G3B | A3FF2F2z2
A2 | G4E2E4G2 | F4D2D2z2
D2 | G2F2E2D2C2B,2 | D4c2B4
A2 | G2G2G2A2A2c2 | B4A2G2z2
D2 | G2F2E2D2C2B,2 | D4c2B4
A2 | G2G2G2A2A2c2 | B4A2G2z2

@@@ Tune index: 774
